svg/color/bill.svg

<?xml version="1.0" encoding="UTF-8" ?>
<!DOCTYPE svg PUBLIC "-//W3C//DTD SVG 1.1//EN" "http://www.w3.org/Graphics/SVG/1.1/DTD/svg11.dtd">
<svg width="250pt" height="250pt" viewBox="0 0 250 250" version="1.1" xmlns="http://www.w3.org/2000/svg">
<g id="#ffffffff">
<path fill="#ffffff" opacity="1.00" d=" M 0.00 0.00 L 250.00 0.00 L 250.00 250.00 L 0.00 250.00 L 0.00 0.00 M 112.39 13.25 C 89.19 15.85 66.89 25.96 49.67 41.74 C 28.25 61.11 14.50 89.06 13.16 117.99 C 11.87 124.70 13.26 131.44 13.58 138.16 C 16.99 168.68 33.72 197.39 58.51 215.51 C 78.91 230.69 104.62 238.51 130.01 237.46 C 158.26 236.28 186.05 224.14 205.63 203.62 C 224.12 185.23 235.35 159.97 237.50 134.06 C 237.47 125.15 238.22 116.12 236.41 107.33 C 232.71 83.54 221.07 61.00 203.63 44.36 C 180.02 20.89 145.39 9.18 112.39 13.25 Z" />
</g>
<g id="#11171cff">
<path fill="#11171c" opacity="1.00" d=" M 112.39 13.25 C 145.39 9.18 180.02 20.89 203.63 44.36 C 221.07 61.00 232.71 83.54 236.41 107.33 C 238.22 116.12 237.47 125.15 237.50 134.06 C 235.35 159.97 224.12 185.23 205.63 203.62 C 186.05 224.14 158.26 236.28 130.01 237.46 C 104.62 238.51 78.91 230.69 58.51 215.51 C 33.72 197.39 16.99 168.68 13.58 138.16 C 13.26 131.44 11.87 124.70 13.16 117.99 C 14.50 89.06 28.25 61.11 49.67 41.74 C 66.89 25.96 89.19 15.85 112.39 13.25 M 117.45 25.67 C 93.53 27.64 70.33 38.30 53.83 55.84 C 34.98 74.67 25.12 101.50 25.60 127.99 C 26.54 143.41 30.16 158.84 37.72 172.41 C 50.72 196.40 73.88 214.82 100.43 221.39 C 124.51 227.92 150.87 224.38 172.77 212.62 C 191.21 202.53 206.47 186.59 215.36 167.50 C 226.17 145.02 227.69 118.40 220.21 94.67 C 213.81 74.58 200.79 56.71 183.70 44.36 C 164.81 30.47 140.79 23.86 117.45 25.67 Z" />
<path fill="#11171c" opacity="1.00" d=" M 114.38 28.49 C 125.98 26.55 137.79 28.21 149.16 30.78 C 173.16 36.83 194.59 52.39 207.64 73.44 C 218.00 89.93 223.26 109.58 222.49 129.03 C 221.45 150.78 213.16 172.27 198.68 188.62 C 182.84 207.06 159.82 219.15 135.62 221.58 C 129.16 222.58 122.59 222.64 116.12 221.68 C 89.71 219.43 64.60 205.48 48.52 184.45 C 37.23 169.96 30.19 152.19 28.53 133.90 C 28.29 127.97 28.27 122.03 28.52 116.10 C 30.65 91.89 42.44 68.74 60.55 52.56 C 75.51 39.36 94.46 30.51 114.38 28.49 M 94.40 79.41 C 92.67 81.32 90.01 83.05 90.25 85.97 C 90.16 109.31 90.26 132.66 90.19 156.00 C 90.16 159.39 90.22 162.79 90.55 166.17 C 95.44 161.86 99.67 156.88 104.31 152.32 C 123.12 134.47 140.32 115.04 159.20 97.25 C 160.84 95.68 162.56 94.13 163.73 92.16 C 161.20 88.77 157.92 86.04 155.00 83.00 C 144.29 72.43 133.83 61.60 123.00 51.15 C 113.20 60.30 104.07 70.13 94.40 79.41 M 134.60 143.06 C 136.50 146.47 138.76 149.69 141.50 152.49 C 144.40 155.37 146.94 159.06 151.15 160.07 C 150.42 157.93 149.38 155.88 147.71 154.32 C 143.62 150.25 139.50 146.15 134.60 143.06 M 127.71 149.96 C 131.93 156.63 137.29 162.85 143.96 167.17 C 143.63 165.35 143.49 163.32 141.97 162.04 C 137.59 157.60 132.95 153.35 127.71 149.96 M 120.99 156.75 C 124.21 161.83 128.24 166.32 132.45 170.60 C 133.72 171.87 135.07 173.13 136.77 173.82 C 138.68 172.56 136.72 170.51 135.74 169.32 C 131.26 164.67 126.53 160.14 120.99 156.75 M 113.71 163.02 C 117.01 168.33 121.44 172.79 125.78 177.25 C 127.18 178.79 129.14 179.52 131.10 180.04 C 130.31 178.22 129.50 176.37 128.05 174.97 C 123.68 170.54 119.02 166.32 113.71 163.02 M 107.69 170.03 C 109.43 173.25 111.52 176.28 114.05 178.94 C 117.02 182.06 119.84 185.60 124.02 187.13 C 123.48 184.91 122.53 182.77 120.80 181.22 C 116.64 177.26 112.50 173.21 107.69 170.03 Z" />
<path fill="#11171c" opacity="1.00" d=" M 103.14 90.04 C 106.46 86.18 110.04 82.53 114.02 79.33 C 117.82 82.66 121.24 86.38 124.95 89.82 C 128.62 86.34 132.11 82.67 135.88 79.30 C 139.75 82.60 143.33 86.22 146.70 90.03 C 143.28 93.83 139.65 97.43 135.88 100.89 C 132.23 97.37 128.69 93.74 124.96 90.30 C 121.16 93.66 117.59 97.27 114.18 101.02 C 117.03 104.04 119.92 107.00 122.71 110.08 C 120.01 113.24 117.07 116.19 113.98 118.98 C 110.63 116.37 107.66 113.33 105.02 110.01 C 107.93 107.02 110.85 104.05 113.70 101.01 C 110.22 97.31 106.57 93.78 103.14 90.04 Z" />
<path fill="#11171c" opacity="1.00" d=" M 92.12 110.09 C 94.01 108.06 95.96 106.07 97.98 104.16 C 99.58 105.81 101.34 107.35 102.58 109.31 C 103.02 112.35 99.52 113.80 97.85 115.78 C 95.88 113.94 93.98 112.04 92.12 110.09 Z" />
</g>
<g id="#23d978ff">
<path fill="#23d978" opacity="1.00" d=" M 117.45 25.67 C 140.79 23.86 164.81 30.47 183.70 44.36 C 200.79 56.71 213.81 74.58 220.21 94.67 C 227.69 118.40 226.17 145.02 215.36 167.50 C 206.47 186.59 191.21 202.53 172.77 212.62 C 150.87 224.38 124.51 227.92 100.43 221.39 C 73.88 214.82 50.72 196.40 37.72 172.41 C 30.16 158.84 26.54 143.41 25.60 127.99 C 25.12 101.50 34.98 74.67 53.83 55.84 C 70.33 38.30 93.53 27.64 117.45 25.67 M 114.38 28.49 C 94.46 30.51 75.51 39.36 60.55 52.56 C 42.44 68.74 30.65 91.89 28.52 116.10 C 28.27 122.03 28.29 127.97 28.53 133.90 C 30.19 152.19 37.23 169.96 48.52 184.45 C 64.60 205.48 89.71 219.43 116.12 221.68 C 122.59 222.64 129.16 222.58 135.62 221.58 C 159.82 219.15 182.84 207.06 198.68 188.62 C 213.16 172.27 221.45 150.78 222.49 129.03 C 223.26 109.58 218.00 89.93 207.64 73.44 C 194.59 52.39 173.16 36.83 149.16 30.78 C 137.79 28.21 125.98 26.55 114.38 28.49 Z" />
<path fill="#23d978" opacity="1.00" d=" M 94.40 79.41 C 104.07 70.13 113.20 60.30 123.00 51.15 C 133.83 61.60 144.29 72.43 155.00 83.00 C 157.92 86.04 161.20 88.77 163.73 92.16 C 162.56 94.13 160.84 95.68 159.20 97.25 C 140.32 115.04 123.12 134.47 104.31 152.32 C 99.67 156.88 95.44 161.86 90.55 166.17 C 90.22 162.79 90.16 159.39 90.19 156.00 C 90.26 132.66 90.16 109.31 90.25 85.97 C 90.01 83.05 92.67 81.32 94.40 79.41 M 103.14 90.04 C 106.57 93.78 110.22 97.31 113.70 101.01 C 110.85 104.05 107.93 107.02 105.02 110.01 C 107.66 113.33 110.63 116.37 113.98 118.98 C 117.07 116.19 120.01 113.24 122.71 110.08 C 119.92 107.00 117.03 104.04 114.18 101.02 C 117.59 97.27 121.16 93.66 124.96 90.30 C 128.69 93.74 132.23 97.37 135.88 100.89 C 139.65 97.43 143.28 93.83 146.70 90.03 C 143.33 86.22 139.75 82.60 135.88 79.30 C 132.11 82.67 128.62 86.34 124.95 89.82 C 121.24 86.38 117.82 82.66 114.02 79.33 C 110.04 82.53 106.46 86.18 103.14 90.04 M 92.12 110.09 C 93.98 112.04 95.88 113.94 97.85 115.78 C 99.52 113.80 103.02 112.35 102.58 109.31 C 101.34 107.35 99.58 105.81 97.98 104.16 C 95.96 106.07 94.01 108.06 92.12 110.09 Z" />
<path fill="#23d978" opacity="1.00" d=" M 134.60 143.06 C 139.50 146.15 143.62 150.25 147.71 154.32 C 149.38 155.88 150.42 157.93 151.15 160.07 C 146.94 159.06 144.40 155.37 141.50 152.49 C 138.76 149.69 136.50 146.47 134.60 143.06 Z" />
<path fill="#23d978" opacity="1.00" d=" M 127.71 149.96 C 132.95 153.35 137.59 157.60 141.97 162.04 C 143.49 163.32 143.63 165.35 143.96 167.17 C 137.29 162.85 131.93 156.63 127.71 149.96 Z" />
<path fill="#23d978" opacity="1.00" d=" M 120.99 156.75 C 126.53 160.14 131.26 164.67 135.74 169.32 C 136.72 170.51 138.68 172.56 136.77 173.82 C 135.07 173.13 133.72 171.87 132.45 170.60 C 128.24 166.32 124.21 161.83 120.99 156.75 Z" />
<path fill="#23d978" opacity="1.00" d=" M 113.71 163.02 C 119.02 166.32 123.68 170.54 128.05 174.97 C 129.50 176.37 130.31 178.22 131.10 180.04 C 129.14 179.52 127.18 178.79 125.78 177.25 C 121.44 172.79 117.01 168.33 113.71 163.02 Z" />
<path fill="#23d978" opacity="1.00" d=" M 107.69 170.03 C 112.50 173.21 116.64 177.26 120.80 181.22 C 122.53 182.77 123.48 184.91 124.02 187.13 C 119.84 185.60 117.02 182.06 114.05 178.94 C 111.52 176.28 109.43 173.25 107.69 170.03 Z" />
</g>
</svg>

<?xml version="1.0" encoding="utf-8"?>
<!-- Generator: Adobe Illustrator 26.0.3, SVG Export Plug-In . SVG Version: 6.00 Build 0)  -->
<svg version="1.1" id="Layer_1" xmlns="http://www.w3.org/2000/svg" xmlns:xlink="http://www.w3.org/1999/xlink" x="0px" y="0px"
	 viewBox="0 0 250 250" style="enable-background:new 0 0 250 250;" xml:space="preserve">
<style type="text/css">
	.st0{fill:#FFFFFF;}
	.st1{fill:#11171C;}
	.st2{fill:#23D978;}
</style>
<g id="_x23_ffffffff">
	<path class="st0" d="M250,250H0V0 M0,0h250 M112.4,13.2C89.2,15.9,66.9,26,49.7,41.7C28.2,61.1,14.5,89.1,13.2,118
		c-1.3,6.7,0.1,13.5,0.4,20.2c3.4,30.5,20.1,59.2,44.9,77.3c20.4,15.2,46.1,23,71.5,22c28.2-1.2,56-13.3,75.6-33.8
		c18.5-18.4,29.7-43.6,31.9-69.6c0-8.9,0.7-17.9-1.1-26.7c-3.7-23.8-15.3-46.3-32.8-63C180,20.9,145.4,9.2,112.4,13.2z"/>
</g>
<g id="_x23_11171cff">
	<path class="st1" d="M112.4,13.2c33-4.1,67.6,7.6,91.2,31.1c17.4,16.6,29.1,39.2,32.8,63c1.8,8.8,1.1,17.8,1.1,26.7
		c-2.1,25.9-13.4,51.2-31.9,69.6c-19.6,20.5-47.4,32.7-75.6,33.8c-25.4,1-51.1-6.8-71.5-22c-24.8-18.1-41.5-46.8-44.9-77.3
		c-0.3-6.7-1.7-13.5-0.4-20.2c1.3-28.9,15.1-56.9,36.5-76.2C66.9,26,89.2,15.9,112.4,13.2 M117.4,25.7c-23.9,2-47.1,12.6-63.6,30.2
		C35,74.7,25.1,101.5,25.6,128c0.9,15.4,4.6,30.8,12.1,44.4c13,24,36.2,42.4,62.7,49c24.1,6.5,50.4,3,72.3-8.8
		c18.4-10.1,33.7-26,42.6-45.1c10.8-22.5,12.3-49.1,4.9-72.8c-6.4-20.1-19.4-38-36.5-50.3C164.8,30.5,140.8,23.9,117.4,25.7z"/>
	<path class="st1" d="M114.4,28.5c11.6-1.9,23.4-0.3,34.8,2.3c24,6.1,45.4,21.6,58.5,42.7c10.4,16.5,15.6,36.1,14.9,55.6
		c-1,21.8-9.3,43.2-23.8,59.6c-15.8,18.4-38.9,30.5-63.1,33c-6.5,1-13,1.1-19.5,0.1c-26.4-2.2-51.5-16.2-67.6-37.2
		c-11.3-14.5-18.3-32.3-20-50.6c-0.2-5.9-0.3-11.9,0-17.8c2.1-24.2,13.9-47.4,32-63.5C75.5,39.4,94.5,30.5,114.4,28.5 M94.4,79.4
		c-1.7,1.9-4.4,3.6-4.2,6.6c-0.1,23.3,0,46.7-0.1,70c0,3.4,0,6.8,0.4,10.2c4.9-4.3,9.1-9.3,13.8-13.8c18.8-17.9,36-37.3,54.9-55.1
		c1.6-1.6,3.4-3.1,4.5-5.1c-2.5-3.4-5.8-6.1-8.7-9.2c-10.7-10.6-21.2-21.4-32-31.8C113.2,60.3,104.1,70.1,94.4,79.4 M134.6,143.1
		c1.9,3.4,4.2,6.6,6.9,9.4c2.9,2.9,5.4,6.6,9.6,7.6c-0.7-2.1-1.8-4.2-3.4-5.8C143.6,150.2,139.5,146.1,134.6,143.1 M127.7,150
		c4.2,6.7,9.6,12.9,16.3,17.2c-0.3-1.8-0.5-3.8-2-5.1C137.6,157.6,132.9,153.4,127.7,150 M121,156.8c3.2,5.1,7.3,9.6,11.5,13.9
		c1.3,1.3,2.6,2.5,4.3,3.2c1.9-1.3-0.1-3.3-1-4.5C131.3,164.7,126.5,160.1,121,156.8 M113.7,163c3.3,5.3,7.7,9.8,12.1,14.2
		c1.4,1.5,3.4,2.3,5.3,2.8c-0.8-1.8-1.6-3.7-3.1-5.1C123.7,170.5,119,166.3,113.7,163 M107.7,170c1.7,3.2,3.8,6.2,6.4,8.9
		c3,3.1,5.8,6.7,10,8.2c-0.5-2.2-1.5-4.4-3.2-5.9C116.6,177.3,112.5,173.2,107.7,170z"/>
	<path class="st1" d="M103.1,90c3.3-3.9,6.9-7.5,10.9-10.7c3.8,3.3,7.2,7,10.9,10.5c3.7-3.5,7.2-7.2,10.9-10.5
		c3.9,3.3,7.4,6.9,10.8,10.7c-3.4,3.8-7.1,7.4-10.8,10.9c-3.7-3.5-7.2-7.2-10.9-10.6c-3.8,3.4-7.4,7-10.8,10.7c2.8,3,5.7,6,8.5,9.1
		c-2.7,3.2-5.6,6.1-8.7,8.9c-3.4-2.6-6.3-5.7-9-9c2.9-3,5.8-6,8.7-9C110.2,97.3,106.6,93.8,103.1,90z"/>
	<path class="st1" d="M92.1,110.1c1.9-2,3.8-4,5.9-5.9c1.6,1.6,3.4,3.2,4.6,5.1c0.4,3-3.1,4.5-4.7,6.5C95.9,113.9,94,112,92.1,110.1
		z"/>
</g>
<g id="_x23_23d978ff">
	<path class="st2" d="M117.4,25.7c23.3-1.8,47.4,4.8,66.2,18.7c17.1,12.3,30.1,30.2,36.5,50.3c7.5,23.7,6,50.4-4.9,72.8
		c-8.9,19.1-24.1,35-42.6,45.1c-21.9,11.8-48.3,15.3-72.3,8.8c-26.6-6.6-49.7-25-62.7-49c-7.6-13.6-11.2-29-12.1-44.4
		c-0.5-26.5,9.4-53.3,28.2-72.1C70.3,38.3,93.5,27.6,117.4,25.7 M114.4,28.5c-19.9,2-38.9,10.9-53.8,24.1
		c-18.1,16.2-29.9,39.3-32,63.5c-0.2,5.9-0.2,11.9,0,17.8c1.7,18.3,8.7,36.1,20,50.6c16.1,21,41.2,35,67.6,37.2
		c6.5,1,13,0.9,19.5-0.1c24.2-2.4,47.2-14.5,63.1-33c14.5-16.3,22.8-37.8,23.8-59.6c0.8-19.4-4.5-39.1-14.9-55.6
		c-13.1-21.1-34.5-36.6-58.5-42.7C137.8,28.2,126,26.5,114.4,28.5z"/>
	<path class="st2" d="M94.4,79.4c9.7-9.3,18.8-19.1,28.6-28.3c10.8,10.4,21.3,21.3,32,31.8c2.9,3,6.2,5.8,8.7,9.2
		c-1.2,2-2.9,3.5-4.5,5.1c-18.9,17.8-36.1,37.2-54.9,55.1c-4.6,4.6-8.9,9.5-13.8,13.8c-0.3-3.4-0.4-6.8-0.4-10.2
		c0.1-23.3,0-46.7,0.1-70C90,83.1,92.7,81.3,94.4,79.4 M103.1,90c3.4,3.7,7.1,7.3,10.6,11c-2.8,3-5.8,6-8.7,9c2.6,3.3,5.6,6.4,9,9
		c3.1-2.8,6-5.7,8.7-8.9c-2.8-3.1-5.7-6-8.5-9.1c3.4-3.8,7-7.4,10.8-10.7c3.7,3.4,7.3,7.1,10.9,10.6c3.8-3.5,7.4-7.1,10.8-10.9
		c-3.4-3.8-6.9-7.4-10.8-10.7c-3.8,3.4-7.3,7-10.9,10.5c-3.7-3.4-7.1-7.2-10.9-10.5C110,82.5,106.5,86.2,103.1,90 M92.1,110.1
		c1.9,2,3.8,3.9,5.7,5.7c1.7-2,5.2-3.4,4.7-6.5c-1.2-2-3-3.5-4.6-5.1C96,106.1,94,108.1,92.1,110.1z"/>
	<path class="st2" d="M134.6,143.1c4.9,3.1,9,7.2,13.1,11.3c1.7,1.6,2.7,3.6,3.4,5.8c-4.2-1-6.8-4.7-9.6-7.6
		C138.8,149.7,136.5,146.5,134.6,143.1z"/>
	<path class="st2" d="M127.7,150c5.2,3.4,9.9,7.6,14.3,12.1c1.5,1.3,1.7,3.3,2,5.1C137.3,162.9,131.9,156.6,127.7,150z"/>
	<path class="st2" d="M121,156.8c5.5,3.4,10.3,7.9,14.8,12.6c1,1.2,2.9,3.2,1,4.5c-1.7-0.7-3.1-2-4.3-3.2
		C128.2,166.3,124.2,161.8,121,156.8z"/>
	<path class="st2" d="M113.7,163c5.3,3.3,10,7.5,14.3,11.9c1.4,1.4,2.3,3.2,3.1,5.1c-2-0.5-3.9-1.2-5.3-2.8
		C121.4,172.8,117,168.3,113.7,163z"/>
	<path class="st2" d="M107.7,170c4.8,3.2,8.9,7.2,13.1,11.2c1.7,1.6,2.7,3.7,3.2,5.9c-4.2-1.5-7-5.1-10-8.2
		C111.5,176.3,109.4,173.2,107.7,170z"/>
</g>
</svg>
